X:1
T:Title
%%score { 1 | 2 }
L:1/8
M:4/4
K:C
V:1 treble nm="Grand Piano"
V:2 bass 
V:1
 z4 z2 z z/[Q:1/4=94] [G,C]/ | [EG]>[EG] [EG]>[FA] [EG]>[DF] E>C | %2
[M:15/16] [B,D]>[B,D][A,C]-[A,C]/[B,D]/[CE]/- [CE]3 |[M:1/16] [G,C]/ | %4
[M:4/4] [EG]>[EG] [EG]>[FA] [EG]>[DF] [CE]>[A,C] | %5
[M:15/16] [B,D]>[B,D][CE]-[CE]/[B,D]/[G,C]/- [G,C]3 |[M:1/16] [EG]/ | %7
[M:4/4] [Ec]>[Ec] [Ec]>[Fd] [Ec]3- [Ec]/[EG]/ |[M:15/16] [FA]>[FA][Ac]-[Ac]/[FA]/[EG]/- [EG]3 | %9
[M:1/16] [EG]/ |[M:4/4] [Ec]>[Ec] [Ec]>[FA] [EG]>[DF] [CE]>[G,C] | %11
 [B,D]>[B,D] [B,E]>[B,D] [G,C]4 |] %12
V:2
 z4 z2 z z/ [C,E,]/ | [C,C]>[C,C] [C,C]>[C,C] [C,C]>[C,C] [C,C]>[C,E,A,] | %2
[M:15/16] [G,,G,]>[G,,G,][G,,G,]-[G,,G,]/[G,,G,]/[C,G,]/- [C,G,]3 |[M:1/16] [C,E,]/ | %4
[M:4/4] [C,C]>[C,C] [C,C]>[C,C] [C,C]>[C,C] [C,G,]>[C,E,] | %5
[M:15/16] [G,,G,]>[G,,G,][G,,G,]-[G,,G,]/[G,,F,]/[C,E,]/- [C,E,]3 |[M:1/16] [C,C]/ | %7
[M:4/4] [C,C]>[C,C] [C,C]>[C,C] [C,C]3- [C,C]/[C,C]/ | %8
[M:15/16] [F,C]>[F,C][F,C]-[F,C]/[F,C]/[C,C]/- [C,C]3 |[M:1/16] [C,C]/ | %10
[M:4/4] [C,C]>[C,C] [C,C]>[C,C] [C,C]>[C,G,] [C,G,]>[C,E,] | %11
 [G,,G,]>[G,,G,] [G,,G,]>[G,,F,] [C,E,]4 |] %12

